uiw/pie-chart.svg

<svg xmlns="http://www.w3.org/2000/svg" xmlns:xlink="http://www.w3.org/1999/xlink" viewBox="0 0 20 20" height="1em" width="1em">
  <defs>
    <path id="a" d="M1.36909829,18.6151347 L19.3154509,18.6151347 C19.6935169,18.6151347 20,18.9251474 20,19.3075674 C20,19.6899873 19.6935169,20 19.3154509,20 L0.684549146,20 C0.306483092,20 0,19.6899873 0,19.3075674 L0,0.692432639 C0,0.310012652 0.306483092,0 0.684549146,0 C1.0626152,0 1.36909829,0.310012652 1.36909829,0.692432639 L1.36909829,18.6151347 Z M2.83676637,17.3989425 L5.59036035,11.8283319 L8.34395433,13.2209845 L11.7863833,9.04214355 L14.5399773,11.1315641 L18.6712413,4.86418564 L18.6712413,17.3989425 L2.83676637,17.3989425 Z"/>
  </defs>
  <use fill="#555" xlink:href="#a"/>
</svg>

<svg xmlns="http://www.w3.org/2000/svg" xmlns:xlink="http://www.w3.org/1999/xlink" viewBox="0 0 20 20" height="1em" width="1em">
  <defs>
    <path id="a" d="M1.37 18.615h17.945c.379 0 .685.31.685.693a.689.689 0 0 1-.685.692H.685A.689.689 0 0 1 0 19.308V.692C0 .31.306 0 .685 0c.378 0 .684.31.684.692v17.923ZM2.836 17.4l2.753-5.57 2.754 1.392 3.442-4.179 2.754 2.09 4.131-6.268V17.4H2.837Z"/>
  </defs>
  <use fill="#555" xlink:href="#a"/>
</svg>
